src/components/Home/images/hasura.svg

<svg width="174" height="51" viewBox="0 0 174 51" fill="none" xmlns="http://www.w3.org/2000/svg">
<path d="M70.2286 29.1331H66.8637C66.3358 29.1331 65.94 28.6707 65.94 28.2083V17.5723C65.94 17.0438 65.4781 16.6475 65.0162 16.6475H62.1132C61.5853 16.6475 61.1895 17.1099 61.1895 17.5723V44.4595C61.1895 44.988 61.6513 45.3843 62.1132 45.3843H65.0162C65.5441 45.3843 65.94 44.9219 65.94 44.4595V34.0217C65.94 33.4932 66.4018 33.0968 66.8637 33.0968H70.2286C70.7564 33.0968 71.1523 33.5593 71.1523 34.0217V44.5255C71.1523 45.054 71.6142 45.4504 72.076 45.4504H74.9791C75.507 45.4504 75.9028 44.988 75.9028 44.5255V17.5723C75.9028 17.0438 75.441 16.6475 74.9791 16.6475H72.076C71.5482 16.6475 71.1523 17.1099 71.1523 17.5723V28.1422C71.1523 28.6707 70.7564 29.1331 70.2286 29.1331Z" fill="black"/>
<path d="M85.1435 17.4402L80.3929 44.3273C80.327 44.8558 80.7228 45.3843 81.2507 45.3843H84.1538C84.6156 45.3843 85.0115 45.054 85.0115 44.5916L85.8032 39.703C85.8692 39.2406 86.2651 38.9103 86.661 38.9103H90.3558C90.8177 38.9103 91.2135 39.2406 91.2135 39.703L92.0713 44.6577C92.1373 45.1201 92.5331 45.4504 92.929 45.4504H95.9641C96.5579 45.4504 97.0197 44.9219 96.8218 44.3273L91.8733 17.4402C91.8074 16.9778 91.4115 16.6475 91.0156 16.6475H86.0672C85.6053 16.6475 85.2754 16.9778 85.1435 17.4402ZM89.5641 34.8805H87.6507C87.0568 34.8805 86.727 34.352 86.7929 33.8235L87.6507 23.9143C87.8486 22.8573 89.3001 22.8573 89.4321 23.9143L90.3558 33.8235C90.4878 34.352 90.0919 34.8805 89.5641 34.8805Z" fill="black"/>
<path d="M109.879 28.7354H106.646C106.053 28.7354 105.723 28.4712 105.723 27.8106V21.6008C105.723 21.0062 106.053 20.6759 106.646 20.6759H108.56C109.154 20.6759 109.484 20.9402 109.484 21.6008V24.5075C109.484 25.036 109.945 25.4324 110.407 25.4324H113.442C113.97 25.4324 114.366 24.9699 114.366 24.5075V20.8741C114.366 18.0334 112.848 16.5801 109.813 16.5801H105.459C102.424 16.5801 100.906 18.0334 100.906 20.8741V28.273C100.906 31.1137 102.424 32.6331 105.393 32.6331H108.626C109.22 32.6331 109.55 32.8973 109.55 33.558V40.4284C109.55 41.0229 109.286 41.3532 108.626 41.3532H106.712C106.119 41.3532 105.789 41.089 105.789 40.4284V37.5217C105.789 36.9932 105.327 36.5968 104.865 36.5968H101.83C101.302 36.5968 100.906 37.0592 100.906 37.5217V41.1551C100.906 43.9957 102.424 45.4491 105.459 45.4491H109.747C112.783 45.4491 114.3 43.9957 114.3 41.1551V33.1616C114.366 30.1888 112.783 28.7354 109.879 28.7354Z" fill="black"/>
<path d="M127.905 40.4297C127.905 41.0243 127.641 41.3546 126.981 41.3546H124.408C123.814 41.3546 123.484 41.0903 123.484 40.4297V17.5723C123.484 17.0438 123.022 16.6475 122.56 16.6475H119.525C118.997 16.6475 118.602 17.1099 118.602 17.5723V41.0243C118.602 43.8649 120.119 45.3183 123.154 45.3183H128.103C131.138 45.3183 132.655 43.8649 132.655 41.0243V17.5723C132.655 17.0438 132.193 16.6475 131.731 16.6475H128.894C128.366 16.6475 127.971 17.1099 127.971 17.5723L127.905 40.4297Z" fill="black"/>
<path d="M151.787 29.7267V20.9405C151.787 18.0998 150.269 16.6465 147.234 16.6465H138.657C138.129 16.6465 137.733 17.1089 137.733 17.5713V44.4585C137.733 44.987 138.195 45.3833 138.657 45.3833H141.56C142.088 45.3833 142.484 44.9209 142.484 44.4585V35.0117C142.484 34.4832 142.946 34.0868 143.408 34.0868C143.738 34.0868 144.067 34.351 144.265 34.6813L148.026 44.7888C148.224 45.1191 148.554 45.3833 148.884 45.3833H152.051C152.645 45.3833 153.173 44.7888 152.909 44.1942L149.28 34.8135C149.082 34.351 149.346 33.8886 149.808 33.6244C150.995 32.9637 151.787 31.5764 151.787 29.7267ZM146.971 21.6011V29.1322C146.971 29.7267 146.641 30.057 146.047 30.057H143.408C142.88 30.057 142.484 29.5946 142.484 29.1322V21.6011C142.484 21.0726 142.946 20.6763 143.408 20.6763H146.047C146.641 20.6763 146.971 21.0066 146.971 21.6011Z" fill="black"/>
<path d="M167.541 16.6465H162.593C162.131 16.6465 161.735 16.9768 161.735 17.4392L156.985 44.3264C156.919 44.8549 157.315 45.3834 157.842 45.3834H160.746C161.207 45.3834 161.603 45.053 161.603 44.5906L162.395 39.702C162.461 39.2396 162.857 38.9093 163.253 38.9093H166.948C167.409 38.9093 167.805 39.2396 167.805 39.702L168.663 44.6567C168.729 45.1191 169.125 45.4494 169.521 45.4494H172.556C173.15 45.4494 173.612 44.9209 173.414 44.3264L168.465 17.4392C168.333 16.9768 168.003 16.6465 167.541 16.6465ZM166.024 34.8795H164.242C163.649 34.8795 163.319 34.351 163.385 33.8225L164.242 24.7721C164.44 23.7151 165.892 23.7151 166.024 24.7721L166.948 33.8225C167.014 34.351 166.618 34.8795 166.024 34.8795Z" fill="black"/>
<path d="M42.6436 16.7787C44.0951 13.2774 44.0951 6.14274 42.1817 0.659618C41.6539 -0.331308 40.2024 -0.000999202 40.1364 1.05599V1.45236C39.8065 6.67124 37.8931 9.51189 35.056 10.8992C34.5941 11.0974 33.8683 11.0974 33.4065 10.7671C30.0415 8.65309 26.0828 7.39792 21.7941 7.39792C17.5055 7.39792 13.5467 8.65309 10.1818 10.7671C9.71992 11.0313 9.19209 11.0974 8.73023 10.8992C5.82714 9.8422 3.84776 6.67124 3.51787 1.3863V0.989927C3.45189 -0.0670609 1.93437 -0.39737 1.47251 0.593557C-0.440889 6.14274 -0.374909 13.2774 1.01066 16.7787C1.73643 18.4963 1.73643 20.4781 1.14261 22.2618C0.350863 24.5079 -0.045013 27.0183 0.0209663 29.5286C0.284883 41.0233 10.0498 50.8005 21.5302 50.9987C33.6704 51.1308 43.5673 41.3537 43.5673 29.1983C43.5673 26.754 43.1714 24.4418 42.4456 22.2618C41.8518 20.4781 41.9178 18.4963 42.6436 16.7787ZM21.5302 45.7798C12.689 45.5816 5.43127 38.3809 5.29931 29.5286C5.10137 20.0818 12.755 12.4186 22.124 12.6168C30.9653 12.7489 38.223 20.0157 38.3549 28.868C38.5529 38.2488 30.8993 45.9119 21.5302 45.7798Z" fill="black"/>
<path d="M24.3717 27.4144L20.479 21.4028C19.8851 20.4118 18.5656 20.1476 17.5759 20.7422C16.9821 21.1385 16.5862 21.7991 16.5862 22.5258C16.5862 22.9222 16.7181 23.3186 16.9161 23.6489L19.5552 27.7447C19.7532 28.075 19.6872 28.4714 19.4893 28.7356L15.3986 33.2278C14.6068 34.0866 14.6728 35.4079 15.5305 36.2006C15.9264 36.5309 16.4542 36.7291 16.9821 36.7291C17.5759 36.7291 18.1037 36.4649 18.4996 36.0685L21.5346 32.5012C21.7985 32.2369 22.1944 32.2369 22.3924 32.5672L24.5697 35.6721C24.7016 35.9364 24.8996 36.1345 25.1635 36.2667C25.8893 36.7952 26.813 36.7952 27.5387 36.3327C28.1326 35.9364 28.5284 35.2757 28.5284 34.5491C28.5284 34.1527 28.3965 33.7563 28.1985 33.426L24.3717 27.4144Z" fill="black"/>
</svg>

<svg fill="none" xmlns="http://www.w3.org/2000/svg" viewBox="0 0 174 51"><path d="M70.23 29.133h-3.366c-.528 0-.924-.463-.924-.925V17.572c0-.529-.461-.925-.923-.925h-2.903c-.528 0-.924.462-.924.925v26.887c0 .528.462.925.924.925h2.903c.528 0 .923-.463.923-.925V34.021c0-.528.462-.925.924-.925h3.365c.528 0 .924.463.924.925v10.504c0 .529.462.925.923.925h2.904c.527 0 .923-.463.923-.925V17.572c0-.529-.462-.925-.923-.925h-2.904c-.527 0-.923.462-.923.925v10.57c0 .528-.396.99-.924.99ZM85.144 17.44l-4.751 26.887c-.066.528.33 1.057.858 1.057h2.903c.462 0 .858-.33.858-.793l.791-4.889c.066-.462.462-.792.858-.792h3.695c.462 0 .858.33.858.793l.857 4.954c.066.463.462.793.858.793h3.035c.594 0 1.056-.529.858-1.123L91.873 17.44c-.066-.463-.462-.793-.857-.793h-4.949c-.462 0-.792.33-.923.793Zm4.42 17.44h-1.913c-.594 0-.924-.529-.858-1.057l.858-9.91c.198-1.056 1.65-1.056 1.781 0l.924 9.91c.132.529-.264 1.057-.792 1.057ZM109.879 28.736h-3.233c-.593 0-.923-.264-.923-.925v-6.21c0-.594.33-.925.923-.925h1.914c.594 0 .924.265.924.925v2.907c0 .529.461.925.923.925h3.035c.528 0 .924-.463.924-.925v-3.633c0-2.841-1.518-4.294-4.553-4.294h-4.354c-3.035 0-4.553 1.453-4.553 4.294v7.398c0 2.841 1.518 4.36 4.487 4.36h3.233c.594 0 .924.265.924.925v6.87c0 .595-.264.926-.924.926h-1.914c-.593 0-.923-.264-.923-.925v-2.907c0-.528-.462-.925-.924-.925h-3.035c-.528 0-.924.463-.924.925v3.634c0 2.84 1.518 4.294 4.553 4.294h4.288c3.036 0 4.553-1.454 4.553-4.294v-7.994c.066-2.973-1.517-4.426-4.421-4.426ZM127.904 40.43c0 .594-.264.924-.924.924h-2.573c-.594 0-.923-.264-.923-.925V17.572c0-.529-.462-.925-.924-.925h-3.035c-.528 0-.924.462-.924.925v23.452c0 2.84 1.518 4.294 4.553 4.294h4.948c3.035 0 4.553-1.454 4.553-4.294V17.572c0-.529-.462-.925-.924-.925h-2.837c-.528 0-.924.462-.924.925l-.066 22.857ZM151.787 29.727V20.94c0-2.84-1.517-4.294-4.552-4.294h-8.577c-.528 0-.924.463-.924.925v26.887c0 .529.462.925.924.925h2.903c.528 0 .923-.462.923-.925v-9.446c0-.529.462-.925.924-.925.33 0 .66.264.858.594l3.761 10.108c.198.33.527.594.857.594h3.167c.594 0 1.122-.594.858-1.189l-3.629-9.38c-.198-.463.066-.925.528-1.19 1.188-.66 1.979-2.048 1.979-3.897Zm-4.816-8.126v7.531c0 .595-.33.925-.924.925h-2.639c-.528 0-.924-.462-.924-.925v-7.53c0-.53.462-.926.924-.926h2.639c.594 0 .924.33.924.925ZM167.541 16.646h-4.948c-.462 0-.858.33-.858.793l-4.75 26.887c-.066.529.33 1.057.857 1.057h2.904c.461 0 .857-.33.857-.792l.792-4.889c.066-.462.462-.793.858-.793h3.695c.461 0 .857.33.857.793l.858 4.955c.066.462.462.792.858.792h3.035c.594 0 1.056-.528.858-1.123l-4.949-26.887c-.132-.462-.462-.793-.924-.793Zm-1.517 18.233h-1.782c-.593 0-.923-.528-.857-1.056l.857-9.05c.198-1.058 1.65-1.058 1.782 0l.924 9.05c.066.528-.33 1.056-.924 1.056ZM42.644 16.779c1.451-3.502 1.451-10.636-.462-16.12-.528-.99-1.98-.66-2.046.397v.396c-.33 5.22-2.243 8.06-5.08 9.447-.462.198-1.188.198-1.65-.132-3.364-2.114-7.323-3.37-11.612-3.37-4.288 0-8.247 1.256-11.612 3.37-.462.264-.99.33-1.452.132-2.903-1.057-4.882-4.228-5.212-9.513V.99C3.452-.067 1.934-.397 1.473.594-.441 6.143-.375 13.277 1.01 16.779c.725 1.717.725 3.7.132 5.483C.35 24.508-.045 27.018.02 29.529.285 41.023 10.05 50.8 21.531 50.999c12.14.132 22.036-9.645 22.036-21.8a21.83 21.83 0 0 0-1.121-6.937c-.594-1.784-.528-3.766.198-5.483Zm-21.114 29C12.69 45.583 5.431 38.382 5.3 29.53c-.199-9.447 7.455-17.11 16.824-16.912 8.841.132 16.099 7.399 16.23 16.251.199 9.38-7.455 17.044-16.824 16.912Z" fill="#000"/><path d="m24.372 27.414-3.893-6.011c-.594-.991-1.913-1.255-2.903-.66-.594.396-.99 1.056-.99 1.783 0 .396.132.793.33 1.123l2.64 4.096a.897.897 0 0 1-.067.99l-4.09 4.493a2.098 2.098 0 0 0 .132 2.973c.395.33.923.528 1.451.528.594 0 1.122-.264 1.518-.66l3.035-3.568c.264-.264.66-.264.857.066l2.178 3.105c.132.264.33.463.593.595.726.528 1.65.528 2.376.066.594-.397.99-1.057.99-1.784 0-.396-.133-.793-.33-1.123l-3.827-6.012Z" fill="#000"/></svg>
